icons/svg/football.svg

﻿<?xml version="1.0" encoding="utf-8"?>
<!DOCTYPE svg PUBLIC "-//W3C//DTD SVG 1.1//EN" "http://www.w3.org/Graphics/SVG/1.1/DTD/svg11.dtd">
<svg xmlns="http://www.w3.org/2000/svg" xmlns:xlink="http://www.w3.org/1999/xlink" version="1.1" baseProfile="full" width="24" height="24" viewBox="0 0 24.00 24.00" enable-background="new 0 0 24.00 24.00" xml:space="preserve">
	<path fill="#000000" fill-opacity="1" stroke-width="0.2" stroke-linejoin="round" d="M 7.52166,7.52166C 9.17157,5.87174 11.2929,4.69323 13.3749,4.18254C 15.457,3.67185 17.4997,3.82899 18.6029,3.9894C 19.7062,4.14981 19.8698,4.31349 20.027,5.41343C 20.1841,6.51337 20.3347,8.54958 19.8207,10.6283C 19.3068,12.7071 18.1283,14.8284 16.4783,16.4783C 14.8284,18.1283 12.7071,19.3068 10.6283,19.8207C 8.54958,20.3347 6.51337,20.1841 5.41343,20.027C 4.31349,19.8698 4.1498,19.7062 3.9894,18.6029C 3.82899,17.4997 3.67185,15.457 4.18254,13.3749C 4.69323,11.2929 5.87174,9.17157 7.52166,7.52166 Z M 7.30026,15.7855L 8.21447,16.6998L 9.42158,15.4927L 10.6287,16.6998L 11.5429,15.7856L 10.3358,14.5784L 12,12.9142L 13.2071,14.1213L 14.1213,13.2071L 12.9142,12L 14.5784,10.3358L 15.7855,11.5429L 16.6997,10.6287L 15.4926,9.4216L 16.6997,8.21448L 15.7855,7.30026L 14.5784,8.50738L 13.3713,7.30027L 12.4571,8.21449L 13.6642,9.4216L 12,11.0858L 10.7929,9.87869L 9.87868,10.7929L 11.0858,12L 9.42158,13.6642L 8.21447,12.4571L 7.30026,13.3713L 8.50737,14.5784L 7.30026,15.7855 Z "/>
</svg>

<svg xmlns="http://www.w3.org/2000/svg" version="1.1" baseProfile="full" width="24" height="24" viewBox="0 0 24.00 24.00" xml:space="preserve"><path fill="#000" fill-opacity="1" stroke-width=".2" stroke-linejoin="round" d="M7.522 7.522c1.65-1.65 3.77-2.83 5.853-3.34 2.082-.51 4.125-.353 5.228-.193 1.103.16 1.267.323 1.424 1.423.157 1.1.308 3.137-.206 5.215-.513 2.08-1.692 4.2-3.342 5.85-1.65 1.65-3.77 2.83-5.85 3.343-2.078.515-4.115.364-5.215.207-1.1-.157-1.263-.32-1.424-1.424-.16-1.103-.318-3.146.193-5.228.51-2.082 1.69-4.203 3.34-5.853zM7.3 15.786l.914.914 1.208-1.207L10.63 16.7l.913-.914-1.207-1.208L12 12.914l1.207 1.207.914-.913L12.915 12l1.664-1.664 1.208 1.207.914-.914-1.207-1.208L16.7 8.214l-.914-.914-1.208 1.207L13.37 7.3l-.913.914 1.207 1.208L12 11.086 10.793 9.88l-.914.913L11.085 12l-1.664 1.664-1.208-1.207-.914.914 1.207 1.208L7.3 15.786z"/></svg>
